icon-svg/echo-studio-2nd.svg

<svg xmlns="http://www.w3.org/2000/svg" viewBox="0 0 24 24"><path fill="#44739e" d="M11.771 4.702c3.314 0 5.999-.558 5.999-1.248a.38.38 0 0 0-.145-.274 1 1 0 0 0-.081-.067 3.3 3.3 0 0 0-1.068-.434 15.56 15.56 0 0 0-8.239-.234 5.1 5.1 0 0 0-2.319.735.38.38 0 0 0-.145.274c0 .69 2.686 1.248 5.998 1.248m8.133 14.823L19.81 4.727a7 7 0 0 0-.787-.641v.038c0 .699-3.147 1.272-7.029 1.272-3.866 0-6.999-.565-7.029-1.263a3.3 3.3 0 0 0-.871.875v14.798c.228 2.971 16.034 2.971 15.81-.281m-1.005-1.61a.38.38 0 0 1-.276.358 26 26 0 0 1-6.756.857 32 32 0 0 1-6.157-.774.54.54 0 0 1-.436-.53v-.582a.288.288 0 0 1 .351-.281 28.2 28.2 0 0 0 6.23.736 33.7 33.7 0 0 0 6.745-.588.254.254 0 0 1 .307.248c.001.173-.008.332-.008.556M17.98 3.456a3 3 0 0 0-.21-.1 1 1 0 0 1 .081.066Z"/></svg>

<?xml version="1.0" encoding="UTF-8"?>
<svg width="24px" fill="#44739e" height="24px" viewBox="0 0 24 24" version="1.1" xmlns="http://www.w3.org/2000/svg" xmlns:xlink="http://www.w3.org/1999/xlink">
            <path d="m 11.771,4.7 c 3.314,0 6,-0.559 6,-1.249 A 0.382,0.382 0 0 0 17.626,3.177 0.963,0.963 0 0 0 17.545,3.11 3.333,3.333 0 0 0 16.476,2.676 15.555,15.555 0 0 0 8.236,2.442 5.13,5.13 0 0 0 5.917,3.177 0.382,0.382 0 0 0 5.772,3.451 c 0,0.69 2.686,1.249 5.999,1.249 z m 8.134,14.825 -0.094,-14.8 a 7.227,7.227 0 0 0 -0.787,-0.642 0.233,0.233 0 0 1 0,0.038 c 0,0.7 -3.148,1.273 -7.03,1.273 -3.867,0 -7,-0.565 -7.03,-1.264 A 3.3,3.3 0 0 0 4.092,5.006 v 14.8 c 0.228,2.971 16.037,2.971 15.813,-0.281 z M 18.9,17.915 a 0.378,0.378 0 0 1 -0.276,0.358 25.855,25.855 0 0 1 -6.757,0.857 31.831,31.831 0 0 1 -6.158,-0.774 0.541,0.541 0 0 1 -0.436,-0.53 v -0.582 a 0.288,0.288 0 0 1 0.351,-0.281 28.162,28.162 0 0 0 6.231,0.736 33.7,33.7 0 0 0 6.746,-0.588 0.254,0.254 0 0 1 0.307,0.248 C 18.909,17.532 18.9,17.691 18.9,17.915 Z M 17.981,3.453 c -0.069,-0.036 -0.139,-0.07 -0.21,-0.1 a 0.96,0.96 0 0 1 0.081,0.066 z"/>

</svg>
